X:8
T: Die schoene Magdalena
N: Q0125C
O: Mitteleuropa, Deutschland
N: komponiert
R: Ballade, verbotene Liebe, Flucht
M: 2/4
L: 1/16
K: F
FG | A2GAB2AB | c4c2
Bc | d2cde2de | f6
ed | c2c2c2dc | B4B2
cB | A2BAG2AG | F6

@@@ Tune index: 1506
